X:1
T:A True Hymn
T:A True Hymn
T:Alan Struck
C:Alan Struck
%%score 1 2 3 4
L:1/8
Q:1/4=120
M:2/2
K:D
V:1 treble nm="Soprano"
V:2 treble nm="Alto" snm="A"
V:3 treble-8 nm="Tenor" snm="T"
V:4 bass nm="Bass" snm="B"
V:1
!f! d4 B4 | c4 z2 A2 | B4 c4 | d4 z2!mp! A2 | d6 e2 | f2!>(! e2 d2 B2 | B4 c2 d2!>)!!p! | %7
w: Joy, _|_ my|Life, my|Crown! My|heart was|mean- ing all the|day, all the|
 e4 z2 A2 | B2 ^A2 B2 B2 | ^A4 z4 | z2!mp! F2 B2 c2 | d2!>(! c2 B2 G2 | G4 ^A2 B2!>)! | %13
w: day, Some-|what it fain would|say,|and still it|runn- eth mutt- er-|ing up and|
 c2!<(! B2 c2 d2!<)! | e4 z2!f! A2 | d4 B4 | c4 z2 A2 | B4 c4 | !fermata!d4 z2!pp! B2 | %19
w: down with on- ly|this, my|Joy, _|_ my|Life, my|Crown! Yet|
 B2 B2 B2 B2 | B4 ^G4 | ^A4 z2!<(! B2 | B2 B2 B2 c2!<)! | d2 d2 c4 | B2 B2 ^A2 F2 | %25
w: slight not those few|words; _|_ If|tru- ly said, they|may take part,|may take part a-|
!>(! B2 B2 B2 c2!>)! | d4 z2!ppp! B2 | B2 B2 B2 B2 | ^A4 z2!mf! =A2 | d2 d2 d2 d2 | d2 d2 d2 c2 | %31
w: mong the best in|art, a-|mong the best in|art: The|fine- ness which a|hymn or psalm a-|
 d4 z2!p! F2 | B2 B2 B2 B2 | B2 B2 B2 ^A2 | !fermata!B4!mf! F2 F2 | F4 ^D4 | ^E6 C2 | ^D4 ^E4 | %38
w: ffords Is|when the soul un-|to the lines a-|ccord. He who|craves _|_ _|all the|
 F4 z2 E2 |!<(! F4 ^G4!<)! | A4 z2!<(! =G2 | A4 B4!<)! | =c4!f! c2 c2 | =c4 A4 | B6 G2 | A4 B4 | %46
w: mind, And|all the|soul, and|strength, and|time, If the|words _|_ _|on- ly|
 =c4 z4 | z8 | z8 | z8 |!mf! B4 B2 B2 |!>(! =c2 B2 A2 =F2 | =F2 E2 ^G2 A2!>)! | B4 z2!pp! E2 | %54
w: rhyme,||||Just- ly com-|plain _ _ that|some- what is be-|hind To|
 A2 A2 ^G2 A2 |!>(! B2 B2 B2 B2!>)! | !fermata!^A4!mf! F2 F2 |!<(! B2 B2 B2 c2!<)! | d4 z2!mp! B2 | %59
w: make His verse, or|write a hymn in|kind. Where- as|if the heart be|moved, Al-|
!<(! B2 c2!<)! d2 B2 |!>(! B2 B2!>)! ^A4 |!<(! ^A2 B2!<)! c4!ff! | d4 B4 | c4 A2 A2 | B4 c4 | %65
w: though the verse be|some- what scant,|some- what scant,|God _|_ doth su-|pply the|
 d4 z2!mp!!<(! B2 | B2 B2 B4 | c4 d2 d2 | d2 e2!<)! !fermata!e2!p! A2 | d4 B4 | c6 A2 | %71
w: want; As|when the heart|says, sighing to|be a- pproved, "O,|could I|love!" and|
 B2 !fermata!z2!ff! c4 | c4 c4 | d8 |] %74
w: stops, God|writ- eth,|"Loved."|
V:2
!f! A4 G4 | A4 z2 F2 | F2 G4 A2 | F4 z4 | z2!mp! A2 d2 c2 | d2!>(! A2 A2 G2 | G2 F2 E2 D2!>)!!p! | %7
w: Joy, _|_ my|Life, _ my|Crown!|My heart was|mean- ing all the|day, _ all the|
 C4 z2 D2 | D2 E2 F2 F2 | F4 z2!mp! F2 | B6 A2 | B2!>(! F2 F2 E2 | E2 D2 C2 B,2!>)! | %13
w: day, Some-|what it fain would|say, and|still it|runn- eth mutt- er-|ing _ up and|
 ^A,2!<(! B,2 E2 D2!<)! | C4 z2!f! A2 | A4 G4 | A4 z2 F2 | F2 G4 A2 | !fermata!F4 z2!pp! F2 | %19
w: down with on- ly|this, my|Joy, _|_ my|Life, _ my|Crown! Yet|
 F2 F2 F2 F2 | F4 E4 | F4 z2!<(! F2 | F2 G2 F2 F2!<)! | F2 ^G2 ^A4 | B2 F2 F2 F2 | %25
w: slight not those few|words; _|_ If|tru- ly said, they|may take part,|may take part a-|
!>(! F2 F2 F2 F2!>)! | F4 z2!ppp! F2 | F2 G2 F2 E2 | F4 z2!mf! E2 | F2 F2 F2 G2 | F2 E2 F2 G2 | %31
w: mong the best in|art, a-|mong the best in|art: The|fine- ness which a|hymn or psalm a-|
 F4 z2!p! C2 | D2 D2 D2 E2 | D2 C2 D2 E2 | !fermata!D4!mf! C2 C2 | C4 B,4 | C4 ^A,4 | ^A,2 B,4 C2 | %38
w: ffords Is|when the soul un-|to the lines a-|ccord. He who|craves _|_ _|all _ the|
 ^A,4 z2 C2 |!<(! C2 D4 E2!<)! | C4 z2!<(! E2 | E2 =F4 G2!<)! | E4!f! G2 G2 | G4 =F4 | G4 E4 | %45
w: mind, And|all _ the|soul, and|strength _ and|time, If the|words _|_ _|
 E2 =F4 G2 | E4 z4 | z8 | z8 | z8 |!mf! =F4 F2 E2 |!>(! A4 E2 D2 | D2 =C2 B,2 A,2!>)! | %53
w: on- * ly|rhyme,||||Just- ly com-|plain that _|some- what is be-|
 ^G,4 z2!pp! B,2 | =C2 C2 D2 E2 |!>(! E2 E2 =F2!>)! F2 | !fermata!^F4!mf! F2 F2 | %57
w: hind To|make His verse, or|write a hymn in|kind. Where- as|
!<(! F2 F2 G2 G2!<)! | F4 z2!mp! F2 |!<(! F2 F2!<)! F2 F2 |!>(! F2 F2!>)! F4 |!<(! F2 G2!<)! A4 | %62
w: if the heart be|moved, Al-|though the verse be|some- what scant,|some- what scant,|
!ff! A4 G4 | A4 F2 F2 | F2 G4 A2 | F4 z2!mp!!<(! F2 |"^rit" F2 G2 F4 | F4 F2 F2 | %68
w: God _|_ doth su-|pply _ the|want; As|when the heart|says, sighing to|
 F2 G2!<)! !fermata!G2!p! F2 | A4 G4 | A6 F2 | G2 !fermata!z2!ff! G2 A2 | _B4 A4 | A8 |] %74
w: be a- pproved, "O,|could I|love!" and|stops, God _|writ- eth,|"Loved."|
V:3
!f! f2 g4 f2 | e4 z2 d2 | d4 A4 | A4 z2!mp! AG | F6 G2 | A2!>(! G2 F2 G2 | G4 G2 G2!>)!!p! | %7
w: Joy, _ _|_ my|Life, my|Crown! My _|heart was|mean- ing all the|day, all the|
 G4 z2 F2 | G2 e2 e2 d2 | c4 z4 | z2!mp! FE D2 E2 | F2!>(! F2 D2 E2 | E4 E2 E2!>)! | %13
w: day, Some-|what it fain would|say,|and _ still it|runn- eth mutt- er-|ing up and|
 E2!<(! D2 G2 G2!<)! | G4 z2!f! A2 | f2 g4 f2 | e4 z2 d2 | d4 A4 | !fermata!A4 z2!pp! d2 | %19
w: down with on- ly|this, my|Joy, _ _|_ my|Life, my|Crown! Yet|
 d2 d2 d2 d2 | d2 e4 d2 | c4 z2!<(! d2 | d2 e2 d2 e2!<)! | f2 f2 f4 | e2 d2 c2 c2 | %25
w: slight not those few|words; _ _|_ If|tru- ly said, they|may take part,|may take part a-|
!>(! d2 d2 d2 e2!>)! | d4 z2!ppp! d2 | d2 e2 d2 d2 | c4 z2!mf! c2 | d2 A2 A2 _B2 | A2 G2 A2 A2 | %31
w: mong the best in|art, a-|mong the best in|art: The|fine- ness which a|hymn or psalm a-|
 A4 z2!p! A2 | B2 F2 F2 G2 | F2 E2 F2 F2 | !fermata!F4!mf! ^A2 A2 | ^A2 B4 A2 | ^G6 F2 | F4 C4 | %38
w: ffords Is|when the soul un-|to the lines a-|ccord. He who|craves _ _|_ _|all the|
 C4 z2 =A2 |!<(! A4 E4!<)! | E4 z2!<(! =c2 | =c4 G4!<)! | G4!f! e2 e2 | e2 =f4 e2 | d6 =c2 | %45
w: mind, And|all the|soul, and|strength and|time, If the|words _ _|_ _|
 =c4 G4 | G4 z4 |!mp! =c4 c2 d2 |!>(! e2 d2 =c2 A2 | A2 G2 B2!>)! =c2 | d4 z4 | z8 | z8 | %53
w: on- ly|rhyme,|Just- ly com-|plain _ _ that|some- what is be-|hind|||
 z4 z2!pp! E2 | E2 E2 d2 =c2 |!>(! B2 B2 B2!>)! B2 | !fermata!^c4!mf! c2 c2 |!<(! d2 d2 d2 e2!<)! | %58
w: To|make His verse, or|write a hymn in|kind. Where- as|if the heart be|
 d4 z2!mp! d2 |!<(! dc B2!<)! A2 Bc |!>(! d2 d2!>)! c4 |!<(! c2 d2!<)! e4 |!ff! f2 g4 f2 | %63
w: moved, Al-|though _ the verse be _|some- what scant,|some- what scant,|God _ _|
 e4 d2 d2 | d4 A4 | A4 z2!mp!!<(! d2 |"^rit""^rit" d2 e2 d4 | c4 d2 d2 | %68
w: _ doth su-|pply the|want; As|when the heart|says, sighing to|
 d2 c2!<)! !fermata!c2!p! d2 | f2 g4 f2 | e6 d2 | d2 !fermata!z2!ff! e4 | e4 e4 | f8 |] %74
w: be a- pproved, "O,|could _ I|love!" and|stops, God|writ- eth,|"Loved."|
V:4
!f! D,2 D6 | A,4 z2 A,2 | G,2 F,2 E,4 | D,4 z4 | z2!mp! A,G, F,2 E,2 | D,2!>(! C,2 D,2 D,2 | %6
w: Joy, _|_ my|Life, _ my|Crown!|My _ heart was|mean- ing all the|
 D,4 E,2 E,2!>)!!p! | A,,4 z2 D,2 | G,2 F,2 B,2 B,2 | F,4 z2!mp! F,E, | D,6 C,2 | %11
w: day, all the|day, Some-|what if fain would|say, and _|still it|
 B,,2!>(! ^A,,2 B,,2 B,,2 | B,,4 C,2 C,2!>)! | F,,2!<(! B,,2 E,2 E,2!<)! | A,,4!f! z2 A,2 | %15
w: runn- eth mutt- er-|ing up _|down with on- ly|this, my|
 D,2 D6 | A,4 z2 A,2 | G,2 F,2 E,4 | !fermata!D,4 z2!pp! B,2 | B,2 B,2 B,2 B,2 | B,8 | %21
w: Joy, _|_ my|Life, _ my|Crown! Yet|slight not those few|words;|
 F,4 z2!<(! B,2 | B,2 B,2 B,2 ^A,2!<)! | B,2 B,2 F,4 | B,2 B,2 F,2 F,2 |!>(! B,2 B,2 F,2 A,2!>)! | %26
w: _ If|tru- ly said, they|may take part|may take part a-|mong the best in|
 D,4 z2!ppp! B,2 | B,2 B,2 B,2 B,2 | F,4 z2!mf! A,2 | D,2 D,2 D,2 D,2 | D,2 D,2 D,2 A,2 | %31
w: art, a-|mong the best in|art: The|fine- ness which a|hymn or psalm a-|
 D,4 z2!p! F,2 | B,,2 B,,2 B,,2 B,,2 | B,,2 B,,2 B,,2 F,2 | !fermata!B,,4!mf! F,2 F,2 | F,2 F,,6 | %36
w: ffords Is|when the soul un-|to the lines a-|ccord. He who|craves _|
 C,8 | B,,2 ^A,,2 ^G,,4 | F,,4 z2 E,2 |!<(! D,2 C,2 B,,4!<)! | A,,4 z2!<(! =G,2 | %41
w: _|all _ the|mind, And|all _ the|soul, and|
 =F,2 E,2 D,4!<)! | =C,4!f! C,2 C,2 | =C,2 =C6 | G,8 | =F,2 E,2 D,4 | =C,4 z4 |!mp! =C4 C2 B,2 | %48
w: strength _ and|time, If the|words _|_|on- * ly|rhyme,|Just- ly com-|
!>(! A,6 E,2 | E,2 E,2 A,2!>)! A,2 | ^G,4 z4 | z8 | z8 | z4 z2!pp! E,2 | A,,2 A,,2 A,2 A,2 | %55
w: plain that|some- what is be-|hind|||To|make His verse, or|
!>(! D,2 E,2 =F,2!>)! D,2 | !fermata!^F,4!mf! F,2 F,2 |!<(! B,2 B,2 B,2 A,2!<)! | D4 z2!mp! B,2 | %59
w: write a hymn in|kind. Where- as|if the heart be|moved, Al-|
!<(! B,2 F,E,!<)! D,E, F,2 |!>(! B,2 B,2!>)! F,4 |!<(! F,2 G,2!<)! A,4 |!ff!"^rit" D,2 D6 | %63
w: though the _ verse _ be|some- what scant,|some- what scant,|God _|
 A,4 A,2 A,2 | G,2 F,2 E,4 | D,4 z2!mp!!<(! B,2 | B,2 B,2 B,4 | ^A,4 B,2 B,2 | %68
w: _ doth su-|pply _ the|want; As|when the heart|says, sighing to|
 B,2 B,2!<)! !fermata!=A,2!p! D,2 | D,2 D4 D2 | A,6 A,2 | G,2 !fermata!z2!ff! _B,2 A,2 | G,4 A,4 | %73
w: be a- pproved, "O,|could _ I|love!" and|stops, God _|writ- eth,|
 D,8 |] %74
w: "Loved."|

